public/assests/icons/fast-food.svg

<svg width="25" height="22" viewBox="0 0 25 22" fill="none" xmlns="http://www.w3.org/2000/svg">
<path d="M16.4063 21.1544V17.7722C16.4063 17.5479 16.324 17.3329 16.1774 17.1743C16.0309 17.0157 15.8322 16.9266 15.625 16.9266H0.781251C0.57405 16.9266 0.375336 17.0157 0.228823 17.1743C0.0823102 17.3329 0 17.5479 0 17.7722L0 21.1544C0 21.3787 0.0823102 21.5938 0.228823 21.7523C0.375336 21.9109 0.57405 22 0.781251 22H15.625C15.8322 22 16.0309 21.9109 16.1774 21.7523C16.324 21.5938 16.4063 21.3787 16.4063 21.1544ZM14.8438 20.3089H1.5625V18.6178H14.8438V20.3089ZM2.34375 14.39C2.13655 14.39 1.93784 14.479 1.79133 14.6376C1.64481 14.7962 1.5625 15.0113 1.5625 15.2355C1.5625 15.4598 1.64481 15.6748 1.79133 15.8334C1.93784 15.992 2.13655 16.0811 2.34375 16.0811H14.0625C14.2697 16.0811 14.4684 15.992 14.6149 15.8334C14.7615 15.6748 14.8438 15.4598 14.8438 15.2355C14.8438 15.0113 14.7615 14.7962 14.6149 14.6376C14.4684 14.479 14.2697 14.39 14.0625 14.39H2.34375ZM0.781251 13.5444H15.625C15.8322 13.5444 16.0309 13.4553 16.1774 13.2967C16.324 13.1382 16.4063 12.9231 16.4063 12.6988C16.4063 12.6396 16.3125 6.77991 8.20314 6.77991C0.09375 6.77991 0 12.6396 0 12.6988C0 12.9231 0.0823102 13.1382 0.228823 13.2967C0.375336 13.4553 0.57405 13.5444 0.781251 13.5444ZM8.20314 8.47103C12.9172 8.47103 14.2852 10.6137 14.6817 11.8533H1.72461C2.1211 10.6137 3.48907 8.47103 8.20314 8.47103ZM24.2188 5.08879H20.193L19.5207 0.721895C19.5055 0.610764 19.4701 0.504021 19.4163 0.407901C19.3626 0.311781 19.2917 0.228211 19.2078 0.162073C19.1239 0.0959352 19.0287 0.0485547 18.9277 0.0226995C18.8267 -0.00315564 18.7219 -0.00696705 18.6195 0.0114877C18.5172 0.0299424 18.4192 0.0702933 18.3314 0.130184C18.2436 0.190074 18.1677 0.268303 18.1081 0.3603C18.0485 0.452298 18.0065 0.556221 17.9844 0.665997C17.9624 0.775774 17.9608 0.889204 17.9797 0.999661L18.609 5.08879H17.9688C17.8626 5.08879 17.7575 5.11223 17.6599 5.15768C17.5623 5.20313 17.4744 5.26963 17.4014 5.35312C17.3283 5.43661 17.2718 5.53534 17.2353 5.64327C17.1987 5.75121 17.1829 5.86607 17.1887 5.98086L17.9699 21.2009C17.9809 21.4168 18.0679 21.62 18.213 21.7686C18.3581 21.9172 18.5503 22 18.75 22H23.4375C23.6372 22 23.8294 21.9172 23.9744 21.7687C24.1195 21.6202 24.2065 21.4172 24.2176 21.2014L24.9989 5.98128C25.0046 5.86651 24.9887 5.75167 24.9521 5.64377C24.9155 5.53587 24.8589 5.43716 24.786 5.35366C24.713 5.27016 24.6251 5.20362 24.5275 5.15808C24.43 5.11254 24.325 5.08897 24.2188 5.08879ZM22.6985 20.3089H19.4891L18.7946 6.77991H23.3926L22.6985 20.3089Z" fill="#FFB577"/>
</svg>

<svg width="25" height="22" fill="none" xmlns="http://www.w3.org/2000/svg"><path d="M16.4063 21.1544v-3.3822c0-.2243-.0823-.4393-.2289-.5979-.1465-.1586-.3452-.2477-.5524-.2477H.7813c-.2073 0-.406.0891-.5525.2477-.1465.1586-.2288.3736-.2288.5979v3.3822c0 .2243.0823.4394.2288.5979.1465.1586.3452.2477.5525.2477H15.625c.2072 0 .4059-.0891.5524-.2477.1466-.1585.2289-.3736.2289-.5979Zm-1.5625-.8455H1.5625v-1.6911h13.2813v1.6911Zm-12.5-5.9189c-.2072 0-.406.089-.5525.2476-.1465.1586-.2288.3737-.2288.5979 0 .2243.0823.4393.2288.5979.1465.1586.3453.2477.5525.2477h11.7187c.2072 0 .4059-.0891.5524-.2477.1466-.1586.2289-.3736.2289-.5979 0-.2242-.0823-.4393-.2289-.5979-.1465-.1586-.3452-.2476-.5524-.2476H2.3437Zm-1.5625-.8456H15.625c.2072 0 .4059-.0891.5524-.2477.1466-.1585.2289-.3736.2289-.5979 0-.0592-.0938-5.9189-8.2032-5.9189C.0938 6.78 0 12.6396 0 12.6988c0 .2243.0823.4394.2288.5979.1465.1586.3452.2477.5525.2477ZM8.203 8.471c4.7141 0 6.0821 2.1427 6.4786 3.3823H1.7247C2.121 10.6137 3.489 8.471 8.203 8.471Zm16.0157-3.3822H20.193l-.6723-4.367a.89.89 0 0 0-.1044-.3139.8243.8243 0 0 0-.2085-.2458.755.755 0 0 0-.2801-.1394.7235.7235 0 0 0-.3082-.0112.7465.7465 0 0 0-.2881.1187.8125.8125 0 0 0-.2233.2301.8827.8827 0 0 0-.1237.3057.915.915 0 0 0-.0047.3337l.6293 4.089h-.6402a.7308.7308 0 0 0-.3089.069.7833.7833 0 0 0-.2585.1954.8568.8568 0 0 0-.1661.2902.9096.9096 0 0 0-.0466.3376l.7812 15.22c.011.2159.098.4191.2431.5677s.3373.2314.537.2314h4.6875c.1997 0 .3919-.0828.5369-.2313.1451-.1485.2321-.3515.2432-.5673l.7813-15.2201a.9114.9114 0 0 0-.0468-.3375.862.862 0 0 0-.1661-.2901.7848.7848 0 0 0-.2585-.1956.7314.7314 0 0 0-.3087-.0693Zm-1.5203 15.2201h-3.2094l-.6945-13.529h4.598l-.6941 13.529Z" fill="#FFB577"/></svg>
